!!!COM:	Pipelare, Matthaeus
!!!CDT:	~1450///-~1550//
!!!OPR:	Missa Fors seulement
!!!ONM:	4
!!!OTL:	Credo
!!!AGN:	Mass; Credo
!!!SCT:	Pip1004d
!!!SCA:	Pip1004d
!!!voices-OPR:	5
!!!voices:	5
**kern	**text	**kern	**text	**kern	**text	**kern	**text	**kern	**text
*staff5	*staff5	*staff4	*staff4	*staff3	*staff3	*staff2	*staff2	*staff1	*staff1
*Ivox	*	*Ivox	*	*Ivox	*	*Ivox	*	*Ivoxa	*
*I"Bassus	*	*I"Tenor2	*	*I"Contra	*	*I"Tenor1	*	*I"Superius	*
*I'B	*	*I'T2	*	*I'C	*	*I'T1	*	*I'S	*
*>[A,B]	*>[A,B]	*>[A,B]	*>[A,B]	*>[A,B]	*>[A,B]	*>[A,B]	*>[A,B]	*>[A,B]	*>[A,B]
*>A	*>A	*>A	*>A	*>A	*>A	*>A	*>A	*>A	*>A
*clefF4	*	*clefF4	*	*clefF4	*	*clefGv2	*	*clefGv2	*
*k[]	*	*k[]	*	*k[]	*	*k[]	*	*k[]	*
*M2/1	*	*M2/1	*	*M2/1	*	*M2/1	*	*M2/1	*
*met(C|)	*	*met(C|)	*	*met(C|)	*	*met(C|)	*	*met(C|)	*
!!section: Patrem omnipotentem
!!!OMD: Patrem omnipotentem
=1-	=1-	=1-	=1-	=1-	=1-	=1-	=1-	=1-	=1-
0AA	Pa-	0A	Pa-	0r	.	0r	.	0r	.
=2	=2	=2	=2	=2	=2	=2	=2	=2	=2
0BB	.	0D	-trem	0r	.	0r	.	0r	.
=3	=3	=3	=3	=3	=3	=3	=3	=3	=3
0AA	-trem	0A	om-	0r	.	0r	.	0r	.
=4	=4	=4	=4	=4	=4	=4	=4	=4	=4
1r	.	1G	-ni-	0r	.	0r	.	0r	.
[1AA	om-	1F	-po-	.	.	.	.	.	.
=5	=5	=5	=5	=5	=5	=5	=5	=5	=5
2AA/]	.	1E	-ten-	0r	.	0r	.	0r	.
2GG/	-ni-	.	.	.	.	.	.	.	.
2FF/	-po-	2D\	.	.	.	.	.	.	.
[2GG/	-ten-	[2E\	.	.	.	.	.	.	.
=6	=6	=6	=6	=6	=6	=6	=6	=6	=6
4GG/]	.	4E\]	.	0r	.	0r	.	0r	.
4FF/	.	4D\	.	.	.	.	.	.	.
4EE/	.	1D	.	.	.	.	.	.	.
4DD/	.	.	.	.	.	.	.	.	.
1EE	.	.	.	.	.	.	.	.	.
.	.	2C#i/	.	.	.	.	.	.	.
=7	=7	=7	=7	=7	=7	=7	=7	=7	=7
[0DD	-tem	[0D	-tem	0r	.	0r	.	1r	.
.	.	.	.	.	.	.	.	1d	Fa-
=8	=8	=8	=8	=8	=8	=8	=8	=8	=8
0DD]	.	0D]	.	1r	.	0r	.	1d	-cto-
.	.	.	.	1A	Fa-	.	.	1d	-rem
=9	=9	=9	=9	=9	=9	=9	=9	=9	=9
0r	.	0r	.	1A	-cto-	0r	.	1f	ce
.	.	.	.	1A	-rem	.	.	1f	li
=10	=10	=10	=10	=10	=10	=10	=10	=10	=10
0r	.	0r	.	1c	ce-	0r	.	1e	et
.	.	.	.	1c	-li	.	.	1e	ter-
=11	=11	=11	=11	=11	=11	=11	=11	=11	=11
0r	.	0r	.	1.B	et	0r	.	1d	-re
.	.	.	.	.	.	.	.	2r	.
.	.	.	.	2A\	.	.	.	[2e\	vi-
=12	=12	=12	=12	=12	=12	=12	=12	=12	=12
0r	.	0r	.	2G\	ter-	0r	.	2e\]	.
.	.	.	.	2F\	.	.	.	2d\	-si-
.	.	.	.	1E	-re	.	.	2c\	-bi-
.	.	.	.	.	.	.	.	2B\	-li-
=13	=13	=13	=13	=13	=13	=13	=13	=13	=13
0r	.	0r	.	2r	.	0r	.	1A	-um
.	.	.	.	1A	vi-	.	.	.	.
.	.	.	.	.	.	.	.	2r	.
.	.	.	.	2G\	-si-	.	.	[2d\	om-
=14	=14	=14	=14	=14	=14	=14	=14	=14	=14
0r	.	0r	.	2F\	-bi-	0r	.	2d\]	.
.	.	.	.	2E\	-li-	.	.	2c\	-ni-
.	.	.	.	2D\	-um	.	.	2B\	-um
.	.	.	.	[2F\	om	.	.	2A/	et
=15	=15	=15	=15	=15	=15	=15	=15	=15	=15
0r	.	0r	.	4F\]	.	0r	.	2c\	in
.	.	.	.	4E\	ni-	.	.	.	.
.	.	.	.	2D\	-um	.	.	2d\	vi-
.	.	.	.	2C/	et	.	.	2e\	-si-
.	.	.	.	2D\	in-	.	.	[2f\	-bi-
=16	=16	=16	=16	=16	=16	=16	=16	=16	=16
0r	.	0r	.	2F\	-vi-	0r	.	4f\]	.
.	.	.	.	.	.	.	.	4e\	.
.	.	.	.	2G\	-si-	.	.	1d	.
.	.	.	.	2E\	-bi-	.	.	.	.
.	.	.	.	2E\	-li-	.	.	2c#i\	-li-
=17	=17	=17	=17	=17	=17	=17	=17	=17	=17
1r	.	0r	.	0D	-um	0r	.	[0d	-um
1D	et	.	.	.	.	.	.	.	.
=18	=18	=18	=18	=18	=18	=18	=18	=18	=18
1D	ex	1r	.	0r	.	0r	.	0d]	.
1D	Pa-	1A	et	.	.	.	.	.	.
=19	=19	=19	=19	=19	=19	=19	=19	=19	=19
1AA	-tre	1A	ex	0r	.	0r	.	0r	.
1AA	na-	1A	pa-	.	.	.	.	.	.
=20	=20	=20	=20	=20	=20	=20	=20	=20	=20
1C	-tum	1E	-tre	0r	.	0r	.	0r	.
2r	.	1E	na-	.	.	.	.	.	.
2C/	an-	.	.	.	.	.	.	.	.
=21	=21	=21	=21	=21	=21	=21	=21	=21	=21
2BB/	-te	1G	-tum	0r	.	0r	.	0r	.
1C	om-	.	.	.	.	.	.	.	.
.	.	2r	.	.	.	.	.	.	.
4BB/	.	[2G\	an-	.	.	.	.	.	.
4AA/	.	.	.	.	.	.	.	.	.
=22	=22	=22	=22	=22	=22	=22	=22	=22	=22
2.GG/	.	2G\]	.	0r	.	0r	.	0r	.
.	.	1G	-te	.	.	.	.	.	.
4AA/	.	.	.	.	.	.	.	.	.
2BB/	.	.	.	.	.	.	.	.	.
[2C/	-ni-	2G\	om-	.	.	.	.	.	.
=23	=23	=23	=23	=23	=23	=23	=23	=23	=23
2C/]	.	2E\	-ni-	0r	.	0r	.	0r	.
2D\	-a	2F\	.	.	.	.	.	.	.
2E\	se-	2G\	.	.	.	.	.	.	.
[2C/	-cu-	[2E\	.	.	.	.	.	.	.
=24	=24	=24	=24	=24	=24	=24	=24	=24	=24
2C/]	.	2E\]	.	0r	.	0r	.	0r	.
4BB/	.	2.A\	-se-	.	.	.	.	.	.
4AA/	.	.	.	.	.	.	.	.	.
1BB	.	.	.	.	.	.	.	.	.
.	.	4G#i\	.	.	.	.	.	.	.
.	.	4G#i\	-cu-	.	.	.	.	.	.
.	.	4F#i\	.	.	.	.	.	.	.
=25	=25	=25	=25	=25	=25	=25	=25	=25	=25
[0AA	-la	0A	-la	1r	.	0r	.	2r	.
.	.	.	.	.	.	.	.	1a	De
.	.	.	.	2r	.	.	.	.	.
.	.	.	.	[2A\	De-	.	.	2a\	um
=26	=26	=26	=26	=26	=26	=26	=26	=26	=26
0AA]	.	0r	.	2A\]	.	0r	.	1a	de
.	.	.	.	2A\	-um	.	.	.	.
.	.	.	.	1A	de	.	.	1e	De-
=27	=27	=27	=27	=27	=27	=27	=27	=27	=27
0r	.	0r	.	1E	De-	0r	.	2g\	-o
.	.	.	.	.	.	.	.	4f\	.
.	.	.	.	.	.	.	.	4e\	.
.	.	.	.	4G\	-o	.	.	1d	.
.	.	.	.	4F\	.	.	.	.	.
.	.	.	.	4E\	.	.	.	.	.
.	.	.	.	4D\	.	.	.	.	.
=28	=28	=28	=28	=28	=28	=28	=28	=28	=28
2r	.	1r	.	1C	.	0r	.	0r	.
2AA/	lu-	.	.	.	.	.	.	.	.
2D\	-men-	2r	.	1r	.	.	.	.	.
2C/	-de	2E\	lu-	.	.	.	.	.	.
=29	=29	=29	=29	=29	=29	=29	=29	=29	=29
2D\	lu-	2A\	-men	0r	.	0r	.	1r	.
2BB/	-mi-	2G\	de	.	.	.	.	.	.
[1AA	-ne	2A\	lu-	.	.	.	.	2r	.
.	.	2F\	-mi-	.	.	.	.	2A/	De-
=30	=30	=30	=30	=30	=30	=30	=30	=30	=30
1AA]	.	0E	-ne	2r	.	0r	.	1c	-um
.	.	.	.	2E\	De-	.	.	.	.
1r	.	.	.	1G	-um	.	.	1B	ve-
=31	=31	=31	=31	=31	=31	=31	=31	=31	=31
0r	.	0r	.	1F	ve-	0r	.	1A	-rum
.	.	.	.	2.E\	-rum	.	.	2r	.
.	.	.	.	.	.	.	.	[2e\	de
.	.	.	.	4F\	.	.	.	.	.
=32	=32	=32	=32	=32	=32	=32	=32	=32	=32
1r	.	0r	.	2G\	.	0r	.	2e\]	.
.	.	.	.	2A\	de	.	.	2c\	De-
2r	.	.	.	2B\	De-	.	.	2d\	-o
[2AA/	de	.	.	2c\	.	.	.	[2e\	ve-
=33	=33	=33	=33	=33	=33	=33	=33	=33	=33
2AA/]	.	1r	.	2A\	-o	0r	.	4e\]	.
.	.	.	.	.	.	.	.	4f\	.
2GG/	De-	.	.	1B	ve-	.	.	2g\	.
1AA	-o	2r	.	.	.	.	.	2f\	.
.	.	2A\	de	[2A\	.	.	.	[2e\	.
=34	=34	=34	=34	=34	=34	=34	=34	=34	=34
1BB	ve-	2F\	de-	4A\]	.	0r	.	2e\]	.
.	.	.	.	4G\	.	.	.	.	.
.	.	2D\	-o	4G\	.	.	.	1d	.
.	.	.	.	4F\	.	.	.	.	.
1AA	.	1E	ve-	1A	.	.	.	.	.
.	.	.	.	.	.	.	.	2c#i\	.
=35	=35	=35	=35	=35	=35	=35	=35	=35	=35
0DD	-ro	0D	-ro	0F	-ro	[0A	ge-	0d	-ro
=36	=36	=36	=36	=36	=36	=36	=36	=36	=36
1.DD	ge-	1.D	ge-	1.F	ge-	0A]	.	1.d	ge-
2DD/	-ni	2D\	-ni-	2F\	-ni-	.	.	2d\	-ni-
=37	=37	=37	=37	=37	=37	=37	=37	=37	=37
1DD	tum	1AA	-tum	1F	-tum	0A	-ni-	1d	-tum
1DD	non	1AA	non	1F	non	.	.	1d	non
=38	=38	=38	=38	=38	=38	=38	=38	=38	=38
1AA	fa-	1C	fac-	1E	fa-	0A	-tum	1e	fac-
1AA	-ctum	1C	-tum	1E	-ctum	.	.	1e	-ctum
=39	=39	=39	=39	=39	=39	=39	=39	=39	=39
1AA	con-	1C	con-	1E	con-	0A	non	1c	con-
1AA	-sub-	1C	-sub-	1E	-sub-	.	.	1c	-sub-
=40	=40	=40	=40	=40	=40	=40	=40	=40	=40
1FF	-stan-	1AA	-stan-	2F\	-stan-	0A	fa-	2c\	-stan-
.	.	.	.	4E\	.	.	.	2.c\	-ti-
.	.	.	.	4D\	.	.	.	.	.
1FF	-ti-	1AA	-ci-	2.C/	-ti-	.	.	.	.
.	.	.	.	.	.	.	.	4d\	.
.	.	.	.	.	.	.	.	4e\	.
.	.	.	.	4D\	.	.	.	4f\	.
=41	=41	=41	=41	=41	=41	=41	=41	=41	=41
1EE	-al-	1BB	-a-	0E	-a-	0G	.	1g	.
1EE	-lem	1BB	-lem	.	.	.	.	2e\	.
.	.	.	.	.	.	.	.	[2g\	-a-
=42	=42	=42	=42	=42	=42	=42	=42	=42	=42
0GG	Pa-	0BB	Pa-	1D	-lem	0G	-ctum	2g\]	.
.	.	.	.	.	.	.	.	4f\	.
.	.	.	.	.	.	.	.	4e\	.
.	.	.	.	2r	.	.	.	1g	.
.	.	.	.	[2D\	Pa-	.	.	.	.
=43	=43	=43	=43	=43	=43	=43	=43	=43	=43
0DD	-tri	[0AA	-tri	2D\]	.	[0A	.	2f\	-lem
.	.	.	.	1F	-tri-	.	.	1d	Pa-
.	.	.	.	4E\	.	.	.	4c\	.
.	.	.	.	4D\	.	.	.	4B\	.
=44	=44	=44	=44	=44	=44	=44	=44	=44	=44
1r	.	0AA]	.	1E	.	0A]	.	1c	.
[1DD	per	.	.	2F\	-per	.	.	2d\	-tri
.	.	.	.	[2D\	quem	.	.	4c\	.
.	.	.	.	.	.	.	.	4B\	.
=45	=45	=45	=45	=45	=45	=45	=45	=45	=45
1DD]	.	1r	.	2D\]	.	0r	.	0A	.
.	.	.	.	4C/	.	.	.	.	.
.	.	.	.	4BB/	.	.	.	.	.
1DD	quem	[1A	per	1AA	.	.	.	.	.
=46	=46	=46	=46	=46	=46	=46	=46	=46	=46
1D	om-	1A]	.	0r	.	0r	.	1r	.
2C/	-ni-	1A	quem	.	.	.	.	2r	.
[2D\	-a	.	.	.	.	.	.	[2A/	per
=47	=47	=47	=47	=47	=47	=47	=47	=47	=47
2D\]	.	1F	om-	1r	.	0r	.	2A/]	.
4C/	.	.	.	.	.	.	.	2A/	quem
4BB/	.	.	.	.	.	.	.	.	.
1C	.	1E	-ni-	1AA	om-	.	.	2A/	om-
.	.	.	.	.	.	.	.	2A/	-ni
=48	=48	=48	=48	=48	=48	=48	=48	=48	=48
0D	fa-	1D	-a	1A	-ni-	0r	.	2F/	a
.	.	.	.	.	.	.	.	1f	fa-
.	.	2r	.	2F\	.	.	.	.	.
.	.	[2F\	fac-	2A\	-a	.	.	4e\	.
.	.	.	.	.	.	.	.	4d\	.
=49	=49	=49	=49	=49	=49	=49	=49	=49	=49
1AA	.	2F\]	.	2A\	fa-	0r	.	2.c\	.
.	.	4E\	.	4G\	.	.	.	.	.
.	.	4D\	.	4F\	.	.	.	4d\	.
[1C	.	2C/	.	2.E\	.	.	.	4e\	.
.	.	.	.	.	.	.	.	4f\	.
.	.	[2E\	.	.	.	.	.	[2g\	.
.	.	.	.	4F\	.	.	.	.	.
=50	=50	=50	=50	=50	=50	=50	=50	=50	=50
1C]	.	2E\]	.	2G\	.	0r	.	2g\]	.
.	.	4D\	.	1A	.	.	.	4f\	.
.	.	4C/	.	.	.	.	.	4e\	.
1BB	-cta	1D	-ta	.	.	.	.	1d	.
.	.	.	.	2G\	-cta	.	.	.	.
=51	=51	=51	=51	=51	=51	=51	=51	=51	=51
1AA	sunt	1E	sunt	2A\	sunt	[0c	qui	2c\	-cta
.	.	.	.	4G\	.	.	.	2.e\	sunt
.	.	.	.	4F\	.	.	.	.	.
[1AA	Qui	[1E	Qui	1E	.	.	.	.	.
.	.	.	.	.	.	.	.	4d\	.
.	.	.	.	.	.	.	.	4c\	.
.	.	.	.	.	.	.	.	4B\	.
=52	=52	=52	=52	=52	=52	=52	=52	=52	=52
1AA]	.	1E]	.	1r	.	1c]	.	0A	.
1AA	pro-	1E	prop-	2r	.	1c	pro-	.	.
.	.	.	.	[2A\	qui	.	.	.	.
=53	=53	=53	=53	=53	=53	=53	=53	=53	=53
1FF	-pter	1F	-ter	2A\]	.	0c	-ter	0r	.
.	.	.	.	2A\	pro-	.	.	.	.
1FF	nos	1F	nos	2A\	-pter	.	.	.	.
.	.	.	.	2A\	nos	.	.	.	.
=54	=54	=54	=54	=54	=54	=54	=54	=54	=54
1AA	ho-	1E	ho-	1A	ho-	0c	nos	0r	.
1AA	-mi-	1C	-mi-	1A	-mi-	.	.	.	.
=55	=55	=55	=55	=55	=55	=55	=55	=55	=55
1GG	-nes	1G	-nes	1B-	-nes	0d	ho-	0r	.
1GG	et	1G	et	1B-i	et	.	.	.	.
=56	=56	=56	=56	=56	=56	=56	=56	=56	=56
1AA	prop-	1E	prop-	1A	pro-	1c	-mi-	0r	.
2EE/	-ter	2E\	-ter	2G\	-pter	[1B	-nes	.	.
2EE/	no-	2E\	no-	2G\	no-	.	.	.	.
=57	=57	=57	=57	=57	=57	=57	=57	=57	=57
1GG	-stram	1D	-stram	1G	-stram	1B]	.	1r	.
1AA	sa-	1C	sa-	1E	sa-	[1A	de	2r	.
.	.	.	.	.	.	.	.	[2e\	de-
=58	=58	=58	=58	=58	=58	=58	=58	=58	=58
1EE	-lu-	1BB	-lu-	1E	-lu-	1A]	.	2e\]	.
.	.	.	.	.	.	.	.	2e\	-scen-
2EE/	-tem	2BB/	-tem	2E\	-tem	1G	ce-	1e	-dit
2EE/	de-	2BB/	de-	2E\	de-	.	.	.	.
=59	=59	=59	=59	=59	=59	=59	=59	=59	=59
1FF	-scen-	1AA	-scen-	1C	-scen-	[0A	-lis	2r	.
.	.	.	.	.	.	.	.	2a\	de
1FF	-dit	1AA	-dit	1C	-dit	.	.	4a\	ce-
.	.	.	.	.	.	.	.	4g\	.
.	.	.	.	.	.	.	.	4f\	.
.	.	.	.	.	.	.	.	4e\	.
=60	=60	=60	=60	=60	=60	=60	=60	=60	=60
1DD	de	1AA	de	1D	de	0A]	.	2f\	.
.	.	.	.	.	.	.	.	4e\	.
.	.	.	.	.	.	.	.	4d\	.
1AA	ce-	1AA	ce-	1E	ce-	.	.	2.c#i\	.
.	.	.	.	.	.	.	.	4B\	.
=61	=61	=61	=61	=61	=61	=61	=61	=61	=61
[0DD	-lis	[0AA	-lis	[0D	-lis	0r	.	0d	-lis
=62	=62	=62	=62	=62	=62	=62	=62	=62	=62
0DD]	.	0AA]	.	0D]	.	0r	.	0r	.
=63	=63	=63	=63	=63	=63	=63	=63	=63	=63
0r	.	0r	.	1r	.	0r	.	0d	et
.	.	.	.	1G	et	.	.	.	.
=64	=64	=64	=64	=64	=64	=64	=64	=64	=64
0r	.	0r	.	2G\	in-	0r	.	1d	in-
.	.	.	.	2G\	-car-	.	.	.	.
.	.	.	.	1F	-na-	.	.	1d	-car-
=65	=65	=65	=65	=65	=65	=65	=65	=65	=65
0r	.	0r	.	1E	-tus	0r	.	1c	-na-
.	.	.	.	[1D	est	.	.	1B	-tus
=66	=66	=66	=66	=66	=66	=66	=66	=66	=66
1r	.	1r	.	1D]	.	0r	.	0A	est
1AA	de	2r	.	1r	.	.	.	.	.
.	.	[2E\	de	.	.	.	.	.	.
=67	=67	=67	=67	=67	=67	=67	=67	=67	=67
1C	Spi-	2E\]	.	0r	.	0r	.	0r	.
.	.	1G	Spi-	.	.	.	.	.	.
1BB	-ri-	.	.	.	.	.	.	.	.
.	.	[2F\	-ri-	.	.	.	.	.	.
=68	=68	=68	=68	=68	=68	=68	=68	=68	=68
1AA	-tu	2F\]	.	0r	.	0r	.	0r	.
.	.	1E	-tui	.	.	.	.	.	.
2r	.	.	.	.	.	.	.	.	.
[2AA/	San-	[2A\	San-	.	.	.	.	.	.
=69	=69	=69	=69	=69	=69	=69	=69	=69	=69
2AA/]	.	2A\]	.	0r	.	0r	.	0r	.
2.D\	.	4G\	.	.	.	.	.	.	.
.	.	4F\	.	.	.	.	.	.	.
.	.	1E	.	.	.	.	.	.	.
4C#i/	.	.	.	.	.	.	.	.	.
4C#i/	.	.	.	.	.	.	.	.	.
4BB/	.	.	.	.	.	.	.	.	.
=70	=70	=70	=70	=70	=70	=70	=70	=70	=70
[0D	-cto	0D	-cto	1r	.	0r	.	1r	.
.	.	.	.	[1F	ex	.	.	[1A	ex
=71	=71	=71	=71	=71	=71	=71	=71	=71	=71
0D]	.	0r	.	1F]	.	0r	.	1A]	.
.	.	.	.	1F	Ma-	.	.	1A	Ma-
=72	=72	=72	=72	=72	=72	=72	=72	=72	=72
0r	.	0r	.	2E\	-ri-	0r	.	1.c	-ri-
.	.	.	.	4D\	.	.	.	.	.
.	.	.	.	4C/	.	.	.	.	.
.	.	.	.	2E\	.	.	.	.	.
.	.	.	.	2D\	-a	.	.	2B\	-a
=73	=73	=73	=73	=73	=73	=73	=73	=73	=73
0r	.	0r	.	2C/	vir-	0r	.	1A	vir-
.	.	.	.	2.F\	-gi-	.	.	.	.
.	.	.	.	.	.	.	.	1G	-gi-
.	.	.	.	4E\	.	.	.	.	.
.	.	.	.	4E\	.	.	.	.	.
.	.	.	.	4D\	.	.	.	.	.
=74	=74	=74	=74	=74	=74	=74	=74	=74	=74
0r	.	0r	.	1F	-ne	0r	.	1F	-ne
.	.	.	.	1r	.	.	.	1r	.
=75	=75	=75	=75	=75	=75	=75	=75	=75	=75
[0DD	et	[0AA	et	[0D	et	[0A	et	[0f	et
=76	=76	=76	=76	=76	=76	=76	=76	=76	=76
0DD]	.	0AA]	.	0D]	.	0A]	.	0f]	.
=77	=77	=77	=77	=77	=77	=77	=77	=77	=77
[0AA	ho-	[0C	ho-	[0E	ho-	[0A	ho-	[0e	ho-
=78	=78	=78	=78	=78	=78	=78	=78	=78	=78
0AA]	.	0C]	.	0E]	.	0A]	.	0e]	.
=79	=79	=79	=79	=79	=79	=79	=79	=79	=79
[0DD	-mo	[0D	-mo	[0F	-mo	0A	-mo	[0d	-mo
=80	=80	=80	=80	=80	=80	=80	=80	=80	=80
0DD]	.	0D]	.	0F]	.	0A	fa-	0d]	.
=81	=81	=81	=81	=81	=81	=81	=81	=81	=81
0GG	fa-	0BB	fac-	0G	fa-	0B	.	0d	fa-
=82	=82	=82	=82	=82	=82	=82	=82	=82	=82
0GG	-ctus	0BB	-tus	0E	-ctus	0G	-ctus	0g	-ctus
=83	=83	=83	=83	=83	=83	=83	=83	=83	=83
[0FF	est	[0C	est	[0F	est	[0A	est	[0c	est
=84	=84	=84	=84	=84	=84	=84	=84	=84	=84
0FF]	.	0C]	.	0F]	.	0A]	.	0c]	.
=85	=85	=85	=85	=85	=85	=85	=85	=85	=85
1r	.	0r	.	1D	cru-	0r	.	0r	.
1AA	cru-	.	.	1C	-ci-	.	.	.	.
=86	=86	=86	=86	=86	=86	=86	=86	=86	=86
1GG	-ci-	0r	.	2D\	-fi-	0r	.	0r	.
.	.	.	.	2E\	.	.	.	.	.
1AA	.	.	.	2F\	.	.	.	.	.
.	.	.	.	[2E\	.	.	.	.	.
=87	=87	=87	=87	=87	=87	=87	=87	=87	=87
1EE	-fi-	0r	.	2E\]	.	0r	.	0r	.
.	.	.	.	4D\	.	.	.	.	.
.	.	.	.	4C/	.	.	.	.	.
1FF	.	.	.	1D	.	.	.	.	.
=88	=88	=88	=88	=88	=88	=88	=88	=88	=88
0EE	-xus	0r	.	1E	-xus	0r	.	0r	.
.	.	.	.	2r	.	.	.	.	.
.	.	.	.	[2E\	et	.	.	.	.
=89	=89	=89	=89	=89	=89	=89	=89	=89	=89
2r	.	0r	.	4E\]	.	0r	.	0r	.
.	.	.	.	4F\	.	.	.	.	.
1E	et-	.	.	4G\	.	.	.	.	.
.	.	.	.	4A\	.	.	.	.	.
.	.	.	.	2B\	.	.	.	.	.
2E\	-i-	.	.	2c\	i-	.	.	.	.
=90	=90	=90	=90	=90	=90	=90	=90	=90	=90
2D\	-am	0r	.	4B\	-am	0r	.	0r	.
.	.	.	.	4A\	.	.	.	.	.
2C/	pro	.	.	1A	pro	.	.	.	.
1BB	no-	.	.	.	.	.	.	.	.
.	.	.	.	2G#i\	no-	.	.	.	.
=91	=91	=91	=91	=91	=91	=91	=91	=91	=91
1AA	-bis	0r	.	0A	-bis	0r	.	0r	.
1r	.	.	.	.	.	.	.	.	.
=92	=92	=92	=92	=92	=92	=92	=92	=92	=92
1AA	sub	0r	.	1r	.	0r	.	0r	.
2.DD/	Pon-	.	.	1A	sub	.	.	.	.
4EE/	-tio	.	.	.	.	.	.	.	.
=93	=93	=93	=93	=93	=93	=93	=93	=93	=93
2FF/	.	0r	.	2.D\	Pon-	0r	.	0r	.
2GG/	Pi-	.	.	.	.	.	.	.	.
.	.	.	.	4E\	-ti-	.	.	.	.
2FF/	-la-	.	.	2F\	-o	.	.	.	.
4EE/	.	.	.	[2G\	Pi-	.	.	.	.
4DD/	.	.	.	.	.	.	.	.	.
=94	=94	=94	=94	=94	=94	=94	=94	=94	=94
2CC/	.	0r	.	2G\]	.	0r	.	1r	.
2.C/	.	.	.	4F\	.	.	.	.	.
.	.	.	.	4E\	.	.	.	.	.
.	.	.	.	1D	-la-	.	.	1d	sub
4BB/	.	.	.	.	.	.	.	.	.
4BB/	.	.	.	.	.	.	.	.	.
4AA/	.	.	.	.	.	.	.	.	.
=95	=95	=95	=95	=95	=95	=95	=95	=95	=95
0C	-to	2r	.	1C	-to	0r	.	1e	Pon-
.	.	1G	sub	.	.	.	.	.	.
.	.	.	.	1r	.	.	.	1g	-ti
.	.	4F\	.	.	.	.	.	.	.
.	.	4E\	.	.	.	.	.	.	.
=96	=96	=96	=96	=96	=96	=96	=96	=96	=96
0r	.	1D	.	0r	.	0A	pas-	1f	o
.	.	2C/	Pon-	.	.	.	.	2e\	Pi-
.	.	[2D\	-ti	.	.	.	.	[2f\	-la-
=97	=97	=97	=97	=97	=97	=97	=97	=97	=97
0r	.	4D\]	.	0r	.	1.A	-sus	4f\]	.
.	.	4E\	.	.	.	.	.	4g\	.
.	.	1F	.	.	.	.	.	1a	.
.	.	4E\	.	.	.	2B\	et	4g\	.
.	.	4D\	.	.	.	.	.	4f\	.
=98	=98	=98	=98	=98	=98	=98	=98	=98	=98
0r	.	1C	o	0r	.	1c	se-	1e	.
.	.	1D	Pi-	.	.	[1B	-pul-	1d	-to
=99	=99	=99	=99	=99	=99	=99	=99	=99	=99
0r	.	1E	-la-	0r	.	1B]	.	1g	pas-
.	.	2AA/	.	.	.	[1A	.	2f\	.
.	.	[2C/	.	.	.	.	.	[2e\	.
=100	=100	=100	=100	=100	=100	=100	=100	=100	=100
0r	.	2C/]	.	0r	.	1A]	.	2e\]	.
.	.	4BB/	.	.	.	.	.	4d\	.
.	.	4AA/	.	.	.	.	.	4c\	.
.	.	1BB	.	.	.	1G	-tus	1d	.
=101	=101	=101	=101	=101	=101	=101	=101	=101	=101
1r	.	1AA	-to	1r	.	[0Al	est	1c	-sus
[1AA	pas-	[1C	pas-	[1E	pas-	.	.	2A/	.
.	.	.	.	.	.	.	.	[2c\	et
=102	=102	=102	=102	=102	=102	=102	=102	=102	=102
1AA]	.	1C]	.	1E]	.	0A_	.	4c\]	.
.	.	.	.	.	.	.	.	4d\	.
.	.	.	.	.	.	.	.	2e\	.
1AA	-sus-	1C	-sus	1E	-sus	.	.	2A/	.
.	.	.	.	.	.	.	.	[2a\	se-
=103	=103	=103	=103	=103	=103	=103	=103	=103	=103
1FF	-et	1C	et	1F	et	0A_	.	2a\]	.
.	.	.	.	.	.	.	.	1f	-pul-
1DD	se-	1D	se-	1F	se-	.	.	.	.
.	.	.	.	.	.	.	.	2d\	.
=104	=104	=104	=104	=104	=104	=104	=104	=104	=104
1AA	-pul-	1C	-pul-	1E	-pul-	0A_	.	4e\	.
.	.	.	.	.	.	.	.	4d\	.
.	.	.	.	.	.	.	.	4c#i\	.
.	.	.	.	.	.	.	.	4B\	.
1AA	-tus	1C	-tus	1E	-tus	.	.	2c#i\	.
.	.	.	.	.	.	.	.	4B\	-tus
.	.	.	.	.	.	.	.	4c#i\	.
=105	=105	=105	=105	=105	=105	=105	=105	=105	=105
0DDl	est	0Dl	est	0Dl	est-	0A]	.	0dl	est
!!LO:LB:i:g=z
=106||	=106||	=106||	=106||	=106||	=106||	=106||	=106||	=106||	=106||
*>B	*>B	*>B	*>B	*>B	*>B	*>B	*>B	*>B	*>B
*clefF4	*	*clefF4	*	*clefF4	*	*clefGv2	*	*clefGv2	*
*k[]	*	*k[]	*	*k[]	*	*k[]	*	*k[]	*
*M2/1	*	*M2/1	*	*M2/1	*	*M2/1	*	*M2/1	*
*met(C|)	*	*met(C|)	*	*met(C|)	*	*met(C|)	*	*met(C|)	*
!!section: Et resurrexit
!!!OMD: Et resurrexit
0r	.	1D	Et	1d	-Et	0r	.	0r	.
.	.	2F\	re-	2c\	re-	.	.	.	.
.	.	2G\	-sur-	2B\	-sur-	.	.	.	.
=107	=107	=107	=107	=107	=107	=107	=107	=107	=107
0r	.	1E	-re-	1c	-re-	0r	.	0r	.
.	.	1D	-xit	2d\	-xit	.	.	.	.
.	.	.	.	4c\	.	.	.	.	.
.	.	.	.	4B\	.	.	.	.	.
=108	=108	=108	=108	=108	=108	=108	=108	=108	=108
0r	.	2r	.	2A\	.	0r	.	0r	.
.	.	1F	ter-	1d	ter-	.	.	.	.
.	.	2E\	-ti-	2c\	-ti-	.	.	.	.
=109	=109	=109	=109	=109	=109	=109	=109	=109	=109
0r	.	2D\	-a	4B\	-a	0r	.	0r	.
.	.	.	.	4A\	.	.	.	.	.
.	.	2C/	.	1A	di-	.	.	.	.
.	.	1BB	di-	.	.	.	.	.	.
.	.	.	.	2G\	.	.	.	.	.
=110	=110	=110	=110	=110	=110	=110	=110	=110	=110
0r	.	0AA	-e	2A\	-e	0r	.	2r	.
.	.	.	.	1c	se-	.	.	1a	se-
.	.	.	.	2c\	-cun-	.	.	2a\	-cun-
=111	=111	=111	=111	=111	=111	=111	=111	=111	=111
0r	.	0r	.	2B\	-dum	0r	.	2g\	-dum
.	.	.	.	2A\	.	.	.	2f\	.
.	.	.	.	2G\	scri-	.	.	2e\	scri-
.	.	.	.	[2A\	-ptu	.	.	[2f\	-ptu-
=112	=112	=112	=112	=112	=112	=112	=112	=112	=112
1r	.	0r	.	4A\]	.	0r	.	4f\]	.
.	.	.	.	4G\	.	.	.	4e\	.
.	.	.	.	2F\	.	.	.	1d	.
2r	.	.	.	1E	.	.	.	.	.
2AA/	et	.	.	.	.	.	.	2c\	.
=113	=113	=113	=113	=113	=113	=113	=113	=113	=113
1BB	a-	2r	.	1D	ras	0r	.	4d\	-ras
.	.	.	.	.	.	.	.	4c\	.
.	.	2D\	et	.	.	.	.	4B\	.
.	.	.	.	.	.	.	.	4A/	.
1C	-scen-	1E	a-	1r	.	.	.	1G	.
=114	=114	=114	=114	=114	=114	=114	=114	=114	=114
1D	-dit	1F	-scen-	2r	.	0r	.	1r	.
.	.	.	.	2A\	et	.	.	.	.
1r	.	1G	-dit	1B	a-	.	.	2r	.
.	.	.	.	.	.	.	.	2d\	et
=115	=115	=115	=115	=115	=115	=115	=115	=115	=115
0r	.	0r	.	1c	-scen-	0r	.	1e	a-
.	.	.	.	1d	-dit	.	.	1f	-scen-
=116	=116	=116	=116	=116	=116	=116	=116	=116	=116
0r	.	0r	.	2r	.	0r	.	1g	-dit
.	.	.	.	2G\	in	.	.	.	.
.	.	.	.	1A	ce-	.	.	2e\	in
.	.	.	.	.	.	.	.	2f\	ce-
=117	=117	=117	=117	=117	=117	=117	=117	=117	=117
0r	.	0r	.	1B	-lun	0r	.	2d\	-lum
.	.	.	.	.	.	.	.	2g\	se-
.	.	.	.	1c	se-	.	.	2e\	-det-
.	.	.	.	.	.	.	.	2a\	-ad
=118	=118	=118	=118	=118	=118	=118	=118	=118	=118
0r	.	1r	.	2B\	-det	0r	.	2g\	dex-
.	.	.	.	2A\	ad	.	.	2.a\	-te
.	.	2r	.	2c\	eex-	.	.	.	.
.	.	.	.	.	.	.	.	4g\	.
.	.	2D\	ad	2d\	-te-	.	.	2f\	.
=119	=119	=119	=119	=119	=119	=119	=119	=119	=119
0r	.	2E\	dex-	2c\	-ram	0r	.	2e\	ram
.	.	2F\	-te-	4B\	.	.	.	1a	Pa-
.	.	.	.	4A\	.	.	.	.	.
.	.	2D\	-ram	2B\	.	.	.	.	.
.	.	2E\	pa-	2B\	Pa-	.	.	2g#i\	.
=120	=120	=120	=120	=120	=120	=120	=120	=120	=120
1r	.	2AA/	-tris	1A	-tris	0r	.	[0a	-tris
.	.	2.A\	Et	.	.	.	.	.	.
2r	.	.	.	1r	.	.	.	.	.
.	.	4G\	.	.	.	.	.	.	.
2D\	et	4F\	.	.	.	.	.	.	.
.	.	4E\	.	.	.	.	.	.	.
=121	=121	=121	=121	=121	=121	=121	=121	=121	=121
2D\	i-	2F\	.	1d	et	0r	.	0a]	.
2D\	-te-	4E\	.	.	.	.	.	.	.
.	.	4D\	.	.	.	.	.	.	.
[1AA	-rum	2E\	i-	2.c\	i-	.	.	.	.
.	.	2E\	-te-	.	.	.	.	.	.
.	.	.	.	4B\	-te-	.	.	.	.
=122	=122	=122	=122	=122	=122	=122	=122	=122	=122
2AA/]	.	2F\	-rum	2A\	-rum	0r	.	0r	.
2C/	ven-	2E\	ven-	2G\	ven-	.	.	.	.
2D\	-tu-	2F\	-tu-	2F\	-tu.rus-	.	.	.	.
2BB/	-rus	2D\	-rus	2G\	.	.	.	.	.
=123	=123	=123	=123	=123	=123	=123	=123	=123	=123
2AA/	est	2E\	est	2A\	-est	0r	.	0r	.
2C/	cum	2E\	cum	2A\	cum	.	.	.	.
2D\	glo-	2F\	glo-	2A\	glo-	.	.	.	.
2BB/	-ri-	2D\	-ri	2G#i\	-ri-	.	.	.	.
=124	=124	=124	=124	=124	=124	=124	=124	=124	=124
1AA	-a	1E	a	1A	-a	0r	.	0r	.
2r	.	2r	.	2r	.	.	.	.	.
2AA/	ju-	2E\	ju-	2A\	ju-	.	.	.	.
=125	=125	=125	=125	=125	=125	=125	=125	=125	=125
2C/	-di-	2E\	-di-	2A\	-di-	0r	.	0r	.
2C/	-ca-	2E\	-ca-	2A\	-ca-	.	.	.	.
2BB/	-re	2D\	-re	2G\	-re	.	.	.	.
2AA/	vi-	2C/	vi-	2F\	vi-	.	.	.	.
=126	=126	=126	=126	=126	=126	=126	=126	=126	=126
2GG/	-vos	2BB/	-vos	2E\	-vos	0r	.	0r	.
2AA/	et	2C/	et	2F\	et	.	.	.	.
2GG/	mor-	2BB/	mor-	2E\	mor-	.	.	.	.
2AA/	.	[2C/	.	[2F\	.	.	.	.	.
=127	=127	=127	=127	=127	=127	=127	=127	=127	=127
1EE	-tu-	4C/]	.	4F\]	.	0r	.	1r	.
.	.	4BB/	.	4E\	.	.	.	.	.
.	.	1BB	-tu	1E	-tu-	.	.	.	.
1FF	.	.	.	.	.	.	.	1a	cu-
.	.	2AA/	.	2D\	.	.	.	.	.
=128	=128	=128	=128	=128	=128	=128	=128	=128	=128
1EE	-os	1BB	os	1E	-os	0r	.	2g\	-jus
.	.	.	.	.	.	.	.	2.e\	re-
2r	.	1C	cu-	2r	.	.	.	.	.
.	.	.	.	.	.	.	.	4d\	.
[2AA/	cu-	.	.	[2E\	cu-	.	.	4c\	.
.	.	.	.	.	.	.	.	4B\	.
=129	=129	=129	=129	=129	=129	=129	=129	=129	=129
2AA/]	.	1C	-jus	2E\]	.	0r	.	2c\	.
2C/	-ius	.	.	2E\	-ius	.	.	2A/	-gni
1BB	re-	1D	re-	2G\	re-	.	.	2B\	non
.	.	.	.	2G\	-gni	.	.	2d\	e-
=130	=130	=130	=130	=130	=130	=130	=130	=130	=130
2.AA/	-gni	1E	-gni	2A\	non	0r	.	2.c\	-rit
.	.	.	.	4G\	.	.	.	.	.
4BB/	.	.	.	4F\	.	.	.	4d\	.
2C/	non	1r	.	2E\	.	.	.	2e\	.
[2D\	e-	.	.	[2F\	e-	.	.	[2A/	fi-
=131	=131	=131	=131	=131	=131	=131	=131	=131	=131
2D\]	.	2r	.	2F\]	.	0r	.	2A/]	.
4C/	.	1A	non	4E\	.	.	.	2.d\	.
4BB/	.	.	.	4D\	.	.	.	.	.
1AA	-rit	.	.	1E	.	.	.	.	.
.	.	.	.	.	.	.	.	4c\	.
.	.	2A\	e-	.	.	.	.	4c\	.
.	.	.	.	.	.	.	.	4B\	.
=132	=132	=132	=132	=132	=132	=132	=132	=132	=132
2.DD/	fi-	2.F\	-rit	1D	-rit	0r	.	2d\	.
.	.	.	.	.	.	.	.	4c\	.
4EE/	.	4G\	.	.	.	.	.	4B\	.
2FF/	.	2A\	.	1r	.	.	.	2A/	.
[2GG/	-nis	[2D\	fi-	.	.	.	.	[2B-i\	.
=133	=133	=133	=133	=133	=133	=133	=133	=133	=133
2GG/]	.	4D\]	.	2r	.	0r	.	2B-\]	.
.	.	4E\	.	.	.	.	.	.	.
4FF/	.	4F\	.	2D\	fi-	.	.	4A/	.
4EE/	.	4G\	.	.	.	.	.	4G/	.
1DD	.	1A	.	2F\	-nis	.	.	4F/	.
.	.	.	.	.	.	.	.	4G/	.
.	.	.	.	4E\	.	.	.	4A/	.
.	.	.	.	4D\	.	.	.	4Bni\	.
=134	=134	=134	=134	=134	=134	=134	=134	=134	=134
[0AA	et	[0A	-nis	[0C	.	[0E	Et	[0c	-nis
=135	=135	=135	=135	=135	=135	=135	=135	=135	=135
0AA]	.	0A]	.	0C]	.	0E]	.	0c]	.
=136	=136	=136	=136	=136	=136	=136	=136	=136	=136
0AA	in	0A	Et	0C	et	0E	in	0r	.
=137	=137	=137	=137	=137	=137	=137	=137	=137	=137
1AA	Spi-	1A	in	1C	in	0E	Spi-	2r	.
.	.	.	.	.	.	.	.	1c	et
1AA	-ri-	2A\	Spi-	2C/	Spi-	.	.	.	.
.	.	2A\	-ri-	2C/	-ri-	.	.	2c\	in
=138	=138	=138	=138	=138	=138	=138	=138	=138	=138
0FF	-tum	0A	-tum	0C	-tum	[0F	.	2c\	Spi-
.	.	.	.	.	.	.	.	2c\	-ri-
.	.	.	.	.	.	.	.	1c	-tum
=139	=139	=139	=139	=139	=139	=139	=139	=139	=139
1FF	San-	1AA	San-	1A	San-	1F]	.	0r	.
1GG	-ctum	1BB	-ctum	2G\	-ctum	2E/	-ri-	.	.
.	.	.	.	[2G\	Do-	2D/	.	.	.
=140	=140	=140	=140	=140	=140	=140	=140	=140	=140
1AA	Do-	1C	Do-	2G\]	.	0C	.	2r	.
.	.	.	.	4F\	.	.	.	1c	San-
.	.	.	.	4E\	.	.	.	.	.
1AA	-mi-	1AA	-mi-	2.F\	-mi-	.	.	.	.
.	.	.	.	.	.	.	.	2c\	-ctum
.	.	.	.	4E\	.	.	.	.	.
=141	=141	=141	=141	=141	=141	=141	=141	=141	=141
0GG	-num	1BB	-num	0G	-num	0D	-tum	1B	Do-
.	.	1GG	et	.	.	.	.	1B	-mi-
=142	=142	=142	=142	=142	=142	=142	=142	=142	=142
0FF	et	0AA	vi-	1.C	et-	0F	San-	0A	-num
.	.	.	.	2D\	.	.	.	.	.
=143	=143	=143	=143	=143	=143	=143	=143	=143	=143
0EE	vi-	[0BB	-vi-	0E	-vi-	0G	.	0r	.
=144	=144	=144	=144	=144	=144	=144	=144	=144	=144
1EE	-vi-	1BB]	.	1G	-vi-	[0E	.	1r	.
1EE	-fi-	1BB	-fi-	1G	-fi-	.	.	1e	et
=145	=145	=145	=145	=145	=145	=145	=145	=145	=145
0CC	-can-	0C	-can-	0G	-can-	0E]	.	2e\	vi-
.	.	.	.	.	.	.	.	2e\	-vi-
.	.	.	.	.	.	.	.	1e	-fi-
=146	=146	=146	=146	=146	=146	=146	=146	=146	=146
1DD	-tem	1AA	-tem	1F	-tem	[0D	-ctum	2f\	-van-
.	.	.	.	.	.	.	.	1d	-tem
2r	.	2r	.	2r	.	.	.	.	.
[2DD/	qui	[2AA/	qui	[2F\	qui	.	.	4c\	.
.	.	.	.	.	.	.	.	4B\	.
=147	=147	=147	=147	=147	=147	=147	=147	=147	=147
2DD/]	.	2AA/]	.	2F\]	.	0D]	.	1A	.
2DD/	ex	2AA/	ex	2F\	ex	.	.	.	.
1DD	Pa-	1AA	Pa-	1F	Pa-	.	.	1r	.
=148	=148	=148	=148	=148	=148	=148	=148	=148	=148
1AA	-tre	1C	-tre	1E	.	0r	.	2r	.
.	.	.	.	.	.	.	.	1A	qui
1r	.	1r	.	2C/	.	.	.	.	.
.	.	.	.	[2D\	-tre	.	.	2A/	ex
=149	=149	=149	=149	=149	=149	=149	=149	=149	=149
0r	.	0r	.	2D\]	.	0r	.	2A/	Pat-
.	.	.	.	4C/	.	.	.	2A/	-tre
.	.	.	.	4BB/	.	.	.	.	.
.	.	.	.	1AA	.	.	.	2A/	Fi-
.	.	.	.	.	.	.	.	2A/	-li-
=150	=150	=150	=150	=150	=150	=150	=150	=150	=150
0r	.	2r	.	0r	.	[0A	Fi-	2.c\	-o-
.	.	1AA	Fi-	.	.	.	.	.	.
.	.	.	.	.	.	.	.	4d\	.
.	.	.	.	.	.	.	.	2e\	.
.	.	2D\	-li-	.	.	.	.	2f\	.
=151	=151	=151	=151	=151	=151	=151	=151	=151	=151
1r	.	2C/	-o-	1r	.	0A]	.	2e\	.
.	.	2.D\	.	.	.	.	.	1f	-que
2r	.	.	.	2r	.	.	.	.	.
.	.	4E\	.	.	.	.	.	.	.
[2FF/	Fi-	[2F\	-que	[2C/	Fi-	.	.	4e\	.
.	.	.	.	.	.	.	.	4d\	.
=152	=152	=152	=152	=152	=152	=152	=152	=152	=152
2FF/]	.	2F\]	.	2C/]	.	0A	-li-	1c	.
2FF/	-li-	4E\	.	2C/	-li-	.	.	.	.
.	.	4D\	.	.	.	.	.	.	.
1FF	-o-	1C	.	1F	-o-	.	.	1r	.
=153	=153	=153	=153	=153	=153	=153	=153	=153	=153
1FF	-que	1r	.	1C	-que	0A	-o-	2r	.
.	.	.	.	.	.	.	.	1c	pro-
1FF	pro-	1C	pro-	1c	pro-	.	.	.	.
.	.	.	.	.	.	.	.	[2f\	-ce
=154	=154	=154	=154	=154	=154	=154	=154	=154	=154
0CC	-ce-	0C	-ce-	0c	-ce-	0G	-que	2f\]	.
.	.	.	.	.	.	.	.	4e\	.
.	.	.	.	.	.	.	.	4d\	.
.	.	.	.	.	.	.	.	1e	.
=155	=155	=155	=155	=155	=155	=155	=155	=155	=155
0FF	-dit	1C	-dit	1A	-dit	0F	pro-	0f	dit
.	.	1C	qui	1A	qui	.	.	.	.
=156	=156	=156	=156	=156	=156	=156	=156	=156	=156
0r	.	1D	cum	1F	cum	1.A	-ce-	0r	.
.	.	1D	Pa-	1F	Pa-	.	.	.	.
.	.	.	.	.	.	2B\	.	.	.
=157	=157	=157	=157	=157	=157	=157	=157	=157	=157
0r	.	1AA	-tre	2.E\	-tre	1c	.	0r	.
.	.	.	.	4F\	.	.	.	.	.
.	.	1E	et	1G	et	[1B	.	.	.
=158	=158	=158	=158	=158	=158	=158	=158	=158	=158
0r	.	1D	Fi-	1F	Fi-	1B]	.	0r	.
.	.	2C/	-li-	2E\	-li-	[1A	.	.	.
.	.	[2D\	.	[2F\	.	.	.	.	.
=159	=159	=159	=159	=159	=159	=159	=159	=159	=159
0r	.	4D\]	.	4F\]	.	1A]	.	1r	.
.	.	4C/	.	4E\	.	.	.	.	.
.	.	4BB/	.	4D\	.	.	.	.	.
.	.	4AA/	.	4C/	.	.	.	.	.
.	.	1BB	.	1D	.	1G#i	.	1d	si-
=160	=160	=160	=160	=160	=160	=160	=160	=160	=160
1r	.	1AA	-o	1E	-o	[0A	-dit	1c	-mul
2r	.	2r	.	2r	.	.	.	2r	.
[2AA/	si-	[2C/	si	[2E\	si-	.	.	[2c\	a-
=161	=161	=161	=161	=161	=161	=161	=161	=161	=161
2AA/]	.	2C/]	.	2E\]	.	0A]	.	2c\]	.
2AA/	-mul	2C/	mul	2E\	-mul	.	.	2c\	-do-
2AA/	a-	2C/	a-	2E\	a-	.	.	1c	-ra
2AA/	-do-	2C/	-do-	2E\	-do-	.	.	.	.
=162	=162	=162	=162	=162	=162	=162	=162	=162	=162
1AA	-ra-	1C	-ra-	1E	-ra-	0r	.	1A	tur
1AA	-tur	1C	-tur	1E	-tur	.	.	1r	.
=163	=163	=163	=163	=163	=163	=163	=163	=163	=163
1FF	et	2r	.	1F	et	0r	.	0r	.
.	.	2C/	et	.	.	.	.	.	.
2FF/	con-	2C/	con-	2F\	con-	.	.	.	.
2FF/	-glo-	2C/	-glo-	2F\	-glo-	.	.	.	.
=164	=164	=164	=164	=164	=164	=164	=164	=164	=164
1C	-ri-	2E\	-ri-	2A\	-ri-	0r	.	0r	.
.	.	4D\	.	4G\	.	.	.	.	.
.	.	4C/	.	4F\	.	.	.	.	.
2AA/	-fi-	2E\	.	2A\	.	.	.	.	.
[2BB/	-ca-	[2D\	-fi-	[2G\	-fi-	.	.	.	.
=165	=165	=165	=165	=165	=165	=165	=165	=165	=165
4BB/]	.	4D\]	.	2G\]	.	0r	.	0r	.
4AA/	.	4C/	.	.	.	.	.	.	.
4GG/	.	1C	-ca-	1F	-ca-	.	.	.	.
4FF/	.	.	.	.	.	.	.	.	.
1GG	.	.	.	.	.	.	.	.	.
.	.	2BB/	.	2E\	.	.	.	.	.
=166	=166	=166	=166	=166	=166	=166	=166	=166	=166
[0FF	-tur	[0C	-tur	1F	-tur	0r	.	2r	.
.	.	.	.	.	.	.	.	1A	qui
.	.	.	.	2r	.	.	.	.	.
.	.	.	.	[2F\	qui	.	.	2A/	lo-
=167	=167	=167	=167	=167	=167	=167	=167	=167	=167
0FF]	.	0C]	.	2F\]	.	0r	.	2A/	-cu-
.	.	.	.	2F\	lo-	.	.	2A/	-tus
.	.	.	.	2F\	-cu-	.	.	1A	est
.	.	.	.	2F\	-tus	.	.	.	.
=168	=168	=168	=168	=168	=168	=168	=168	=168	=168
0r	.	0r	.	2E\	est	0r	.	1c	per
.	.	.	.	2F\	per	.	.	.	.
.	.	.	.	2G\	Pro-	.	.	2B\	.
.	.	.	.	[2A\	-phe-	.	.	[2A/	Pro-
=169	=169	=169	=169	=169	=169	=169	=169	=169	=169
0r	.	0r	.	2A\]	.	0r	.	2A/]	.
.	.	.	.	4G\	.	.	.	2.d\	-phe-
.	.	.	.	4F\	.	.	.	.	.
.	.	.	.	1E	.	.	.	.	.
.	.	.	.	.	.	.	.	4c#i\	.
.	.	.	.	.	.	.	.	4c#i\	.
.	.	.	.	.	.	.	.	4B\	.
=170	=170	=170	=170	=170	=170	=170	=170	=170	=170
2r	.	1r	.	1D	-tas	0r	.	1d	-tas
1F	et	.	.	.	.	.	.	.	.
.	.	2r	.	1r	.	.	.	1r	.
2E\	u-	2E\	u-	.	.	.	.	.	.
=171	=171	=171	=171	=171	=171	=171	=171	=171	=171
2D\	-nam	2F\	-nam	1r	.	0r	.	1r	.
2C/	sanc-	2G\	sanc-	.	.	.	.	.	.
1AA	-tam	1A	-tam	2r	.	.	.	2r	.
.	.	.	.	2A\	ca	.	.	2f\	ca-
=172	=172	=172	=172	=172	=172	=172	=172	=172	=172
1r	.	1r	.	2c\	tho-	0r	.	2e\	-tho-
.	.	.	.	2B\	-li-	.	.	2d\	-li-
2r	.	2r	.	[1A	-cam	.	.	1c	-cam
2AA/	et	2E\	et	.	.	.	.	.	.
=173	=173	=173	=173	=173	=173	=173	=173	=173	=173
2D\	a-	2F\	a-	1A]	.	0r	.	0r	.
2C/	-po-	2E\	-po-	.	.	.	.	.	.
2D\	-sto-	2F\	-sto-	1r	.	.	.	.	.
2C/	-li-	2G\	-li-	.	.	.	.	.	.
=174	=174	=174	=174	=174	=174	=174	=174	=174	=174
1AA	-cam	1A	-cam	2r	.	0r	.	2r	.
.	.	.	.	2A\	ec-	.	.	2f\	ec-
1r	.	1r	.	2c\	-cle-	.	.	2e\	-cle-
.	.	.	.	2B\	-si-	.	.	2d\	-si-
=175	=175	=175	=175	=175	=175	=175	=175	=175	=175
2r	.	2r	.	1A	-am	0r	.	1c	-am
1FF	con-	1A	con-	.	.	.	.	.	.
.	.	.	.	1r	.	.	.	1r	.
2FF/	-fi-	2A\	-fi-	.	.	.	.	.	.
=176	=176	=176	=176	=176	=176	=176	=176	=176	=176
1FF	-te-	1A	-te-	2r	.	0r	.	1r	.
.	.	.	.	1c	con-	.	.	.	.
[1F	-or	[1A	-or	.	.	.	.	2r	.
.	.	.	.	2c\	-fi-	.	.	[2f\	con-
=177	=177	=177	=177	=177	=177	=177	=177	=177	=177
1F]	.	1A]	.	1c	-te-	0r	.	2f\]	.
.	.	.	.	.	.	.	.	2f\	-fi-
1F	u-	1A	u-	[1c	-or	.	.	1f	-te-
=178	=178	=178	=178	=178	=178	=178	=178	=178	=178
1C	-num	1G	-num	1c]	.	0r	.	1e	-or
1C	bap	1G	bap-	1c	u-	.	.	1e	u-
=179	=179	=179	=179	=179	=179	=179	=179	=179	=179
0D	tis-	0F	-tis-	2A\	-num	0r	.	2d\	-num
.	.	.	.	2A\	bap-	.	.	2d\	bap-
.	.	.	.	1A	-tis-	.	.	1d	-tis-
=180	=180	=180	=180	=180	=180	=180	=180	=180	=180
0AA	-ma	0E	-ma	1A	-ma	0r	.	1c	-ma
.	.	.	.	2r	.	.	.	2r	.
.	.	.	.	[2A\	in	.	.	[2c\	in
=181	=181	=181	=181	=181	=181	=181	=181	=181	=181
0r	.	0r	.	2A\]	.	0r	.	2c\]	.
.	.	.	.	2A\	re-	.	.	2c\	re-
.	.	.	.	2A\	-mis-	.	.	2c\	-mis-
.	.	.	.	2F\	-si-	.	.	2c\	-si-
=182	=182	=182	=182	=182	=182	=182	=182	=182	=182
1r	.	1r	.	1G	-o-	0r	.	1B	-o-
2r	.	2r	.	1A	-nem	.	.	1A	-nem
[2AA/	pec-	2E\	pec-	.	.	.	.	.	.
=183	=183	=183	=183	=183	=183	=183	=183	=183	=183
2AA/]	.	2F\	-ca-	0r	.	0r	.	0r	.
2GG/	-ca	2.E\	.	.	.	.	.	.	.
1FF	to-	.	.	.	.	.	.	.	.
.	.	4D\	.	.	.	.	.	.	.
.	.	4D\	-to-	.	.	.	.	.	.
.	.	4C/	.	.	.	.	.	.	.
=184	=184	=184	=184	=184	=184	=184	=184	=184	=184
1EE	-rum	1E	-rum	2r	.	0r	.	1r	.
.	.	.	.	1G	et	.	.	.	.
1r	.	1r	.	.	.	.	.	2r	.
.	.	.	.	2G\	ex-	.	.	[2d\	et
=185	=185	=185	=185	=185	=185	=185	=185	=185	=185
0r	.	1r	.	1G	-pec-	0r	.	2d\]	.
.	.	.	.	.	.	.	.	2d\	ex-
.	.	2r	.	1BB	-to	.	.	1d	-pec-
.	.	[2F\	re	.	.	.	.	.	.
=186	=186	=186	=186	=186	=186	=186	=186	=186	=186
2r	.	2F\]	.	0r	.	0r	.	1A	-to
1AA	re-	4E\	.	.	.	.	.	.	.
.	.	4D\	.	.	.	.	.	.	.
.	.	2E\	.	.	.	.	.	1r	.
2AA/	-sur-	2F\	sur-	.	.	.	.	.	.
=187	=187	=187	=187	=187	=187	=187	=187	=187	=187
2C/	-rec-	2E\	-rec-	0r	.	0r	.	0r	.
2D\	-ti-	1A	-ti-	.	.	.	.	.	.
1BB	-o-	.	.	.	.	.	.	.	.
.	.	2G#i\	-o	.	.	.	.	.	.
=188	=188	=188	=188	=188	=188	=188	=188	=188	=188
1AA	-nem	1A	nem	2r	.	0r	.	2r	.
.	.	.	.	2.E\	mor-	.	.	2A/	mor-
1r	.	1r	.	.	.	.	.	2G/	-tu-
.	.	.	.	4D\	.	.	.	.	.
.	.	.	.	4C/	.	.	.	[2A/	-o-
.	.	.	.	4BB/	.	.	.	.	.
=189	=189	=189	=189	=189	=189	=189	=189	=189	=189
0r	.	0r	.	2AA/	.	0r	.	2A/]	.
.	.	.	.	1D	-tu-	.	.	4G/	.
.	.	.	.	.	.	.	.	4F/	.
.	.	.	.	.	.	.	.	1E	.
.	.	.	.	2C#i/	-o	.	.	.	.
=190	=190	=190	=190	=190	=190	=190	=190	=190	=190
[0DD	et	0F	Et	0D	rum	[0A	et	0D	-rum
=191	=191	=191	=191	=191	=191	=191	=191	=191	=191
0DD]	.	0D	vi-	0F	et	0A]	.	0r	.
=192	=192	=192	=192	=192	=192	=192	=192	=192	=192
0AA	vi-	0C	-tam	1E	vi-	0A	vi-	0r	.
.	.	.	.	1E	-tam	.	.	.	.
=193	=193	=193	=193	=193	=193	=193	=193	=193	=193
0AA	-tam	0C	ven-	1F	ven-	0A	-tam	0r	.
.	.	.	.	1F	-tu-	.	.	.	.
=194	=194	=194	=194	=194	=194	=194	=194	=194	=194
0GG	ven-	[0D	-tu-	[0G	-ri	0B	ven-	1r	.
.	.	.	.	.	.	.	.	1d	et
=195	=195	=195	=195	=195	=195	=195	=195	=195	=195
0GG	-tu-	0D]	.	1G]	.	0B	-tu-	2d\	vi-
.	.	.	.	.	.	.	.	2d\	-tam
.	.	.	.	1G	se-	.	.	2d\	ven-
.	.	.	.	.	.	.	.	2d\	-tu-
=196	=196	=196	=196	=196	=196	=196	=196	=196	=196
0C	-ri	0E	-ri	0G	-cu-	[0c	-ri	2c\	-ri
.	.	.	.	.	.	.	.	2.e\	.
.	.	.	.	.	.	.	.	4d\	.
.	.	.	.	.	.	.	.	4c\	.
.	.	.	.	.	.	.	.	4B\	.
=197	=197	=197	=197	=197	=197	=197	=197	=197	=197
1.FF	se-	1.F	.	1A	-li	0c]	.	1A	.
.	.	.	.	1r	.	.	.	1r	.
2GG/	.	4E\	.	.	.	.	.	.	.
.	.	4D\	.	.	.	.	.	.	.
=198	=198	=198	=198	=198	=198	=198	=198	=198	=198
2AA/	.	2C/	.	0r	.	1.c	se-	0r	.
2BB/	.	2D\	.	.	.	.	.	.	.
2C/	.	2E\	.	.	.	.	.	.	.
[2D\	-cu-	[2F\	se-	.	.	2B\	.	.	.
=199	=199	=199	=199	=199	=199	=199	=199	=199	=199
2D\]	.	2F\]	.	0r	.	1A	.	1r	.
2C/	.	1E	.	.	.	.	.	.	.
1BB	-li	.	.	.	.	1G#i	-cu-	1d	se-
.	.	2D\	-cu-	.	.	.	.	.	.
=200	=200	=200	=200	=200	=200	=200	=200	=200	=200
1.AA	A-	1E	-li	2r	.	1A	-li	2c\	-cu-
.	.	.	.	2E\	A-	.	.	4B\	-li
.	.	.	.	.	.	.	.	4A/	.
.	.	1r	.	2C/	.	2F/	.	2c\	.
2GG/	.	.	.	[2D\	-men	[2G/	A-	[2B\	A-
=201	=201	=201	=201	=201	=201	=201	=201	=201	=201
1BB	.	1r	.	4D\]	.	4G/]	.	4B\]	.
.	.	.	.	4E\	.	4F/	.	4A/	.
.	.	.	.	4F\	.	4E/	.	1d	.
.	.	.	.	4G\	.	4D/	.	.	.
1AA	.	2r	.	[1Al	.	1E	.	.	.
.	.	[2A\	A-	.	.	.	.	2c#i\	.
=202	=202	=202	=202	=202	=202	=202	=202	=202	=202
[0DDl	-men	2A\]	.	0A_	.	[0Dl	-men	[0dl	-men
.	.	2A\	-men	.	.	.	.	.	.
.	.	2F\	.	.	.	.	.	.	.
.	.	[2A\	.	.	.	.	.	.	.
=203	=203	=203	=203	=203	=203	=203	=203	=203	=203
0DD_	.	4A\]	.	0A_	.	0D_	.	0d_	.
.	.	4G\	.	.	.	.	.	.	.
.	.	4F\	.	.	.	.	.	.	.
.	.	4E\	.	.	.	.	.	.	.
.	.	2D\	.	.	.	.	.	.	.
.	.	4C/	.	.	.	.	.	.	.
.	.	4BB/	.	.	.	.	.	.	.
=204	=204	=204	=204	=204	=204	=204	=204	=204	=204
0DD]	.	0AAl	.	0A]	.	0D]	.	0d]	.
==	==	==	==	==	==	==	==	==	==
*-	*-	*-	*-	*-	*-	*-	*-	*-	*-
!!!RDF**kern: l=long note in original notation
!!!RDF**kern: i=editorial accidental
!!!ENC:	Jesse Rodin 8/26/2013
!!!END:	2013/08/26/
!!!EED:	Jesse Rodin
!!!EEV:	2013/08/29/
!!!ONB:	Translated from MusicXML and edited on 2013/08/29/ by Craig Sapp
!!muse2ps: T^@{OPR}^u^@{ONM}{. }@{OTL}^C^@{COM}^i2I150v85,85,85,85,110Q16c120
